X:343
M:C|
L:1/8
K:F
fdcB AB ~c2|fdcB ABca|fdcB AB ~c2|BAGF ECEG|fdcB AB ~c2|
fdcB Abca|fedf cfAc|BAGF ECEG||FEFd cF A2|FEFd cFAd|1

